!!!COM: Bach, Johann Sebastian
!!!OTL: Freu' dich sehr, O meine Seele
!!!ONM: No. 282
!!!OCL: Erk
!!!YOE: Riemenschneider, Albert
!!!OPR: 371 Harmonized Chorales and 69 Chorale Melodies with Figured Bass
!!!OPT: Bach Chorale Harmonizations
**kern	**kern	**kern	**kern
! bass	! tenor	! alto	! soprano
*M4/4	*M4/4	*M4/4	*M4/4
*C:	*C:	*C:	*C:
=1	=1	=1	=1
4C	4e	4g	4cc
4G	4B	4g	4dd
4c	4c	4g	4ee
4B	4d	4g	4dd
=2	=2	=2	=2
4A	8e	4a	4cc
.	8f#	.	.
4G	4g	4d	4b
4D	8g	4d	4a
.	8f#	.	.
4G;	4B;	4d;	4g;
=3	=3	=3	=3
4E	4c	4g	4cc
4D	4fn	8a	4dd
.	.	8b	.
4C	8g	8cc	4ee
.	8c	8g	.
4BB	[4d	4g	8dd
.	.	.	16ee
.	.	.	16ff
=4	=4	=4	=4
4C	8d]	4g	4ee
.	8c	.	.
4GG	8c	4g	8.dd
.	8B	.	.
.	.	.	16cc
2C;	2e;	2g;	2cc;
!! Repeat from the beginning.
=1	=1	=1	=1
4C	4e	4g	4cc
4G	4B	4g	4dd
4c	4c	4g	4ee
4B	4d	4g	4dd
=2	=2	=2	=2
4A	8e	4a	4cc
.	8f#	.	.
4G	4g	4d	4b
4D	8g	4d	4a
.	8f#	.	.
4G;	4B;	4d;	4g;
=3	=3	=3	=3
4E	4c	4g	4cc
4D	4fn	8a	4dd
.	.	8b	.
4C	8g	8cc	4ee
.	8c	8g	.
4BB	[4d	4g	8dd
.	.	.	16ee
.	.	.	16ff
=4	=4	=4	=4
4C	8d]	4g	4ee
.	8c	.	.
4GG	8c	4g	8.dd
.	8B	.	.
.	.	.	16cc
2C;	2e;	2g;	2cc;
!! Continuing.
=5	=5	=5	=5
4c	4c	4g	4ee
4A	4c	8a	4ff
.	.	16b-	.
.	.	16cc	.
4E	4c	4b-	4gg
4F	8c	4a	4ff
.	8d	.	.
=6	=6	=6	=6
4C#	8e	4g	4ee
.	8A	.	.
4D	8A	8f	4dd
.	8B	16a	.
.	.	16g#	.
2AA;	2c#;	2a;	2ee;
=7	=7	=7	=7
4E	8cn	4gn	4gg
.	8d	.	.
4C	4e	4cc	4gg
4F	8f	4cc	4aa
.	8e	.	.
4G	4d	4b	4gg
=8	=8	=8	=8
8A	4c	4a	4ff
8B	.	.	.
4c	4c	8g	4ee
.	.	8f#	.
2G;	2B;	2g;	2dd;
=9	=9	=9	=9
4c	8c	4g	4ee
.	8d	.	.
4C	4e	8cc	4gg
.	.	8b	.
4D	4f	8a	4ff
.	.	8b	.
4E	8g	4cc	8ee
.	8G	.	8dd
=10	=10	=10	=10
4F	8A	4a	4cc
.	8e	.	.
4F#	8d	4a	4dd
.	8c	.	.
4G	2B	4b	2ee
4G#	.	4e	.
=11	=11	=11	=11
2A;	2A;	2e;	2cc;
4Gn	4B-	8g	4ee
.	.	8a	.
4C	4E	4B-	4gg
=12	=12	=12	=12
4D	4F	8a	4ff
.	.	8bn	.
8E	8G	4cc	4ee
8F	8A	.	.
8G	4B	4g	4dd
8F	.	.	.
8E	4c	4g	4cc
8C	.	.	.
=13	=13	=13	=13
2GG	4c	2g	2dd
.	4B	.	.
2C;	2e;	2g;	2cc;
==	==	==	==
*-	*-	*-	*-
!!!CDT: 1685/3//-1750/7/28
!!!OCY: Deutschland
!!!AGN: chorale
!!!AST: Baroque
!!!AIN: vox
!!!YOY: 1941
!!!PPP: New York; London
!!!PPR: G. Schirmer
!!!ENC: David Huron
!!!EED: David Huron
!!!YEN: United States of America
!!!YER: 1992
!!!YEC: Copyright 1992 David Huron
!!!YEM: Rights to all derivative electronic formats reserved.
!!!YER: March 20, 1996
!!!AMT: simple quadruple
!!!EEV: 1.1
